X: 197
T: Song in Honor of Red Fish
C: Teton Sioux band 1911-1914
N: Derived from sioux192.krn
O: South Dakota, U.S.A.
N: Teton Sioux Music by Frances Densmore, 1918
Z: transcribed to **kern format by Craig Sapp
L: 1/8
M: 2/4
Q: 1/4=58
K: Ab clef=treble
%%linebreak <none>
(3A A A (3A A A [I:setbarnb 2]| 
(3F F F (3F F F | 
(3A A A (3F F F | 
(3F F E (3C C C | 
(3B, B, B, (3B, B,- B, ||  
[M:3/4](3B, B, B, (3B, G, G, (3G, G,- G, ||  
[M:2/4](3B, B, B, (3B, G,- G, | 
(3G, G, G, (3G, G, G, | 
G,4 | 
G,4 | 
(3F F F (3F F F | 
(3F A A (3F F F | 
(3F E E (3C C C | 
(3C B, B, (3B, B, B, ||  
[M:3/4](3B, B, B, (3B, G, G, (3G, G,- G, ||  
[M:2/4](3B, B, B, (3B, G,- G, | 
(3G, G, G, (3G, G, G, | 
G,4 | 
G,4 |]  



